static/images/beliefbase.svg

<?xml version="1.0" encoding="UTF-8" standalone="no"?>
<!DOCTYPE svg PUBLIC "-//W3C//DTD SVG 1.1//EN" "http://www.w3.org/Graphics/SVG/1.1/DTD/svg11.dtd">
<svg xmlns="http://www.w3.org/2000/svg" xmlns:xl="http://www.w3.org/1999/xlink" version="1.1" viewBox="3 -2 287 274" width="287pt" height="274pt" xmlns:dc="http://purl.org/dc/elements/1.1/"><metadata> Produced by OmniGraffle 6.6.1 <dc:date>2016-12-18 16:12:21 +0000</dc:date></metadata><defs><filter id="Shadow" filterUnits="userSpaceOnUse"><feGaussianBlur in="SourceAlpha" result="blur" stdDeviation="1.308"/><feOffset in="blur" result="offset" dx="0" dy="2"/><feFlood flood-color="black" flood-opacity=".5" result="flood"/><feComposite in="flood" in2="offset" operator="in"/></filter><filter id="Shadow_2" filterUnits="userSpaceOnUse"><feGaussianBlur in="SourceAlpha" result="blur" stdDeviation="1.3030978"/><feOffset in="blur" result="offset" dx="0" dy="2"/><feFlood flood-color="black" flood-opacity=".2" result="flood"/><feComposite in="flood" in2="offset" operator="in" result="color"/><feMerge><feMergeNode in="color"/><feMergeNode in="SourceGraphic"/></feMerge></filter><font-face font-family="Helvetica" font-size="12" units-per-em="1000" underline-position="-75.683594" underline-thickness="49.316406" slope="0" x-height="522.94922" cap-height="717.28516" ascent="770.01953" descent="-229.98047" font-weight="500"><font-face-src><font-face-name name="Helvetica"/></font-face-src></font-face><font-face font-family="Helvetica" font-size="10" units-per-em="1000" underline-position="-75.683594" underline-thickness="49.316406" slope="0" x-height="522.94922" cap-height="717.28516" ascent="770.01953" descent="-229.98047" font-weight="500"><font-face-src><font-face-name name="Helvetica"/></font-face-src></font-face></defs><g stroke="none" stroke-opacity="1" stroke-dasharray="none" fill="none" fill-opacity="1"><title>Beliefbase</title><g><title>Ebene 1</title><g><xl:use xl:href="#id25_Graphic" filter="url(#Shadow)"/><xl:use xl:href="#id8_Graphic" filter="url(#Shadow)"/><xl:use xl:href="#id10_Graphic" filter="url(#Shadow)"/><xl:use xl:href="#id3_Graphic" filter="url(#Shadow)"/></g><g filter="url(#Shadow_2)"><path d="M 189 9 L 269.18182 9 C 274.15238 9 278.18182 13.029437 278.18182 18 L 278.18182 98.18182 C 278.18182 103.15238 274.15238 107.18182 269.18182 107.18182 L 189 107.18182 C 184.02944 107.18182 180 103.15238 180 98.18182 L 180 18 C 180 13.029437 184.02944 9 189 9 Z" stroke="black" stroke-linecap="round" stroke-linejoin="round" stroke-width="1"/><text transform="translate(185 14)" fill="black"><tspan font-family="Helvetica" font-size="12" font-weight="500" x="23.407315" y="11" textLength="41.367188">Agent 2</tspan></text></g><g id="id25_Graphic"><rect x="194.72727" y="51.545455" width="66.272727" height="29.454545" fill="white"/><path d="M 194.72727 51.545455 L 261 51.545455 L 261 81 L 194.72727 81 Z M 201.35455 51.545455 L 201.35455 81 M 254.37273 81 L 254.37273 51.545455" stroke="black" stroke-linecap="round" stroke-linejoin="round" stroke-width="1"/><text transform="translate(206.35455 54.272727)" fill="black"><tspan font-family="Helvetica" font-size="10" font-weight="500" x="10.759579" y="10" textLength="6.669922">V</tspan><tspan font-family="Helvetica" font-size="10" font-weight="500" x="17.25372" y="10" textLength="17.783203">iew </tspan><tspan font-family="Helvetica" font-size="10" font-weight="500" x="6.7825284" y="22" textLength="29.453125">(foor2)</tspan></text></g><g filter="url(#Shadow_2)"><path d="M 24 9 L 104.18182 9 C 109.15238 9 113.18182 13.029437 113.18182 18 L 113.18182 98.18182 C 113.18182 103.15238 109.15238 107.18182 104.18182 107.18182 L 24 107.18182 C 19.029437 107.18182 15 103.15238 15 98.18182 L 15 18 C 15 13.029437 19.029437 9 24 9 Z" stroke="black" stroke-linecap="round" stroke-linejoin="round" stroke-width="1"/><text transform="translate(20 14)" fill="black"><tspan font-family="Helvetica" font-size="12" font-weight="500" x="23.407315" y="11" textLength="41.367188">Agent 1</tspan></text></g><g id="id8_Graphic"><rect x="32.181818" y="51.545455" width="66.272727" height="29.454545" fill="white"/><path d="M 32.181818 51.545455 L 98.454545 51.545455 L 98.454545 81 L 32.181818 81 Z M 38.80909 51.545455 L 38.80909 81 M 91.82727 81 L 91.82727 51.545455" stroke="black" stroke-linecap="round" stroke-linejoin="round" stroke-width="1"/><text transform="translate(43.80909 54.272727)" fill="black"><tspan font-family="Helvetica" font-size="10" font-weight="500" x="10.759579" y="10" textLength="6.669922">V</tspan><tspan font-family="Helvetica" font-size="10" font-weight="500" x="17.25372" y="10" textLength="17.783203">iew </tspan><tspan font-family="Helvetica" font-size="10" font-weight="500" x="11.228329" y="22" textLength="20.561523">(foo)</tspan></text></g><g id="id10_Graphic"><path d="M 121.34091 254.86364 L 121.34091 212.31818 C 121.34091 209.38255 133.25364 207 147.93182 207 C 162.61 207 174.52273 209.38255 174.52273 212.31818 L 174.52273 254.86364 C 174.52273 257.79927 162.61 260.18182 147.93182 260.18182 C 133.25364 260.18182 121.34091 257.79927 121.34091 254.86364" fill="white"/><path d="M 121.34091 254.86364 L 121.34091 212.31818 C 121.34091 209.38255 133.25364 207 147.93182 207 C 162.61 207 174.52273 209.38255 174.52273 212.31818 L 174.52273 254.86364 C 174.52273 257.79927 162.61 260.18182 147.93182 260.18182 C 133.25364 260.18182 121.34091 257.79927 121.34091 254.86364 M 121.34091 212.31818 C 121.34091 215.25382 133.25364 217.63636 147.93182 217.63636 C 162.61 217.63636 174.52273 215.25382 174.52273 212.31818" stroke="black" stroke-linecap="round" stroke-linejoin="round" stroke-width="1"/><text transform="translate(126.34091 230.25)" fill="black"><tspan font-family="Helvetica" font-size="10" font-weight="500" x="4.078702" y="10" textLength="35.024414">Storage</tspan></text></g><g id="id3_Graphic"><path d="M 147.93182 132.545455 L 196 151.77273 L 147.93182 171 L 99.863636 151.77273 Z" fill="white"/><path d="M 147.93182 132.545455 L 196 151.77273 L 147.93182 171 L 99.863636 151.77273 Z" stroke="black" stroke-linecap="round" stroke-linejoin="round" stroke-width="1"/><text transform="translate(117.842045 145.38818)" fill="black"><tspan font-family="Helvetica" font-size="10" font-weight="500" x="7.701527" y="10" textLength="46.69922">Beliefbase</tspan></text></g><line x1="147.93182" y1="171" x2="147.93182" y2="207" stroke="black" stroke-linecap="round" stroke-linejoin="round" stroke-width="1"/><path d="M 98.454545 66.272727 L 105.454545 66.272727 L 148.36364 66.272727 L 147.93182 125.545455 L 147.93182 132.545455" stroke="black" stroke-linecap="round" stroke-linejoin="round" stroke-width="1"/><path d="M 194.72727 66.272727 L 187.72727 66.272727 L 148.36364 66.272727 L 147.93182 125.545455 L 147.93182 132.545455" stroke="black" stroke-linecap="round" stroke-linejoin="round" stroke-width="1"/></g></g></svg>

<svg xmlns="http://www.w3.org/2000/svg" xmlns:xl="http://www.w3.org/1999/xlink" viewBox="3 -2 287 274"><defs><filter id="b" filterUnits="userSpaceOnUse"><feGaussianBlur in="SourceAlpha" result="blur" stdDeviation="1.308"/><feOffset in="blur" result="offset" dy="2"/><feFlood flood-color="#000" flood-opacity=".5" result="flood"/><feComposite in="flood" in2="offset" operator="in"/></filter><filter id="f" filterUnits="userSpaceOnUse"><feGaussianBlur in="SourceAlpha" result="blur" stdDeviation="1.303"/><feOffset in="blur" result="offset" dy="2"/><feFlood flood-color="#000" flood-opacity=".2" result="flood"/><feComposite in="flood" in2="offset" operator="in" result="color"/><feMerge><feMergeNode in="color"/><feMergeNode in="SourceGraphic"/></feMerge></filter></defs><g fill="none"><xl:use xl:href="#a" filter="url(#b)"/><xl:use xl:href="#c" filter="url(#b)"/><xl:use xl:href="#d" filter="url(#b)"/><xl:use xl:href="#e" filter="url(#b)"/><g filter="url(#f)"><path d="M189 9h80.182a9 9 0 0 1 9 9v80.182a9 9 0 0 1-9 9H189a9 9 0 0 1-9-9V18a9 9 0 0 1 9-9z" stroke="#000" stroke-linecap="round" stroke-linejoin="round"/><text transform="translate(185 14)" fill="#000"><tspan font-size="12" font-weight="500" x="23.407" y="11" textLength="41.367">Agent 2</tspan></text></g><g id="a"><path fill="#fff" d="M194.727 51.545H261V81h-66.273z"/><path d="M194.727 51.545H261V81h-66.273zm6.628 0V81m53.018 0V51.545" stroke="#000" stroke-linecap="round" stroke-linejoin="round"/><text transform="translate(206.355 54.273)" fill="#000"><tspan font-size="10" font-weight="500" x="10.76" y="10" textLength="6.67">V</tspan><tspan font-size="10" font-weight="500" x="17.254" y="10" textLength="17.783">iew </tspan><tspan font-size="10" font-weight="500" x="6.783" y="22" textLength="29.453">(foor2)</tspan></text></g><g filter="url(#f)"><path d="M24 9h80.182a9 9 0 0 1 9 9v80.182a9 9 0 0 1-9 9H24a9 9 0 0 1-9-9V18a9 9 0 0 1 9-9z" stroke="#000" stroke-linecap="round" stroke-linejoin="round"/><text transform="translate(20 14)" fill="#000"><tspan font-size="12" font-weight="500" x="23.407" y="11" textLength="41.367">Agent 1</tspan></text></g><g id="c"><path fill="#fff" d="M32.182 51.545h66.273V81H32.182z"/><path d="M32.182 51.545h66.273V81H32.182zm6.627 0V81m53.018 0V51.545" stroke="#000" stroke-linecap="round" stroke-linejoin="round"/><text transform="translate(43.81 54.273)" fill="#000"><tspan font-size="10" font-weight="500" x="10.76" y="10" textLength="6.67">V</tspan><tspan font-size="10" font-weight="500" x="17.254" y="10" textLength="17.783">iew </tspan><tspan font-size="10" font-weight="500" x="11.228" y="22" textLength="20.562">(foo)</tspan></text></g><g id="d"><path d="M121.34 254.864v-42.546c0-2.935 11.914-5.318 26.592-5.318 14.678 0 26.59 2.383 26.59 5.318v42.546c0 2.935-11.912 5.318-26.59 5.318-14.678 0-26.591-2.383-26.591-5.318" fill="#fff"/><path d="M121.34 254.864v-42.546c0-2.935 11.914-5.318 26.592-5.318 14.678 0 26.59 2.383 26.59 5.318v42.546c0 2.935-11.912 5.318-26.59 5.318-14.678 0-26.591-2.383-26.591-5.318m0-42.546c0 2.936 11.913 5.318 26.59 5.318 14.679 0 26.592-2.382 26.592-5.318" stroke="#000" stroke-linecap="round" stroke-linejoin="round"/><text transform="translate(126.34 230.25)" fill="#000"><tspan font-size="10" font-weight="500" x="4.079" y="10" textLength="35.024">Storage</tspan></text></g><g id="e"><path d="M147.932 132.545L196 151.773 147.932 171l-48.068-19.227z" fill="#fff"/><path d="M147.932 132.545L196 151.773 147.932 171l-48.068-19.227z" stroke="#000" stroke-linecap="round" stroke-linejoin="round"/><text transform="translate(117.842 145.388)" fill="#000"><tspan font-size="10" font-weight="500" x="7.702" y="10" textLength="46.699">Beliefbase</tspan></text></g><path stroke="#000" stroke-linecap="round" stroke-linejoin="round" d="M147.932 171v36M98.455 66.273h49.909l-.432 59.272v7"/><path d="M194.727 66.273h-46.363l-.432 59.272v7" stroke="#000" stroke-linecap="round" stroke-linejoin="round"/></g></svg>
